X: 1
T:Basse-dance appelle : Iouyssance vous donneray : 
R:Basse-dance
T:auec les mesures & battemens du tabourin. 
C:Trad.
S:Thoinot Arbeau
N:0069.gif
A:Champaigne
B:Orchesographie (1589)
O:France
Z:<eric.forgeot@caramail.com> -- http://anamnese.fr.st
Z:Transcrit et/ou corrig? par Michel BELLON - 2006-11-25
Z:Pour toute observation mailto:galouvielle@free.fr
M:3/4
L:1/4
Q:1/4=160
K:Gmaj
P:Air de la basse dance
AAA | cB/2A/2G | cd/2B/2c/2d/2 | e2 e | \
P:continuation de l'air
e/2d/2c/2d/2e/2f/2 | gg/2f/2e | f/2e/2d/2c/2d/2B/2 | c2c |
P:branle
ede | A2A | B/2c/2d/2c/2B/2A/2 | G2G | \
P:Devx simples
g/2f/2e/2d/2c/2B/2 | cf/2e/2d/2c/2 | B/2A/2G/2 A/2A/2G/2 | A2A |
P:Dovble
AAA | cB/2A/2G | cd/2B/2c/2d/2 | e2 e | \
P:Reprise
e/2d/2c/2d/2e/2f/2 | gg/2f/2e | f/2e/2d/2c/2d/2B/2 | c2c |
P:Dovble
ede | A2A | B/2c/2d/2c/2B/2A/2 | G2G | \
P:Reprise
g/2f/2e/2d/2c/2B/2 | cf/2e/2d/2c/2 | B/2A/2G/2 A/2A/2G/2 | A2A |
P:Branle
aaa | g/2f/2g/2a/2b2 | a/2g/2f/2e/2f/2d/2 | e2 e | \
P:Devx simples
e/2d/2e/2f/2g/2a/2 | ba/2g/2f/2e/2 | f/2e/2d/2e/2 f/2d/2 | e2 e | 
P:Dovble
aaa | g/2f/2g/2a/2 b | a/2g/2f/2e/2f/2d/2 | e2 e | \
P:Dovble
e/2d/2e/2f/2g/2a/2 | b a/2g/2f/2e/2 | f/2e/2d/2e/2f/2d/2 | e2 e |
P:Dovble
AAA | c B/2A/2 G | c d/2c/2d/2 | e2 e | \
P:Reprise
e/2d/2c/2d/2e/2f/2 | g g/2f/2 e | fedcdB | c2 c |
P:Dovble
ede | A2 A | BcdcBA | G2 G | \
P:Reprise
g/2f/2e/2d/2c/2B/2 | c f/2e/2d/2c/2 | B/2A/2G/2A/2A/2G/2 | A2 A ||
P:Branle
A/2G/2A/2B/2A/2B/2 | c B/2A/2 G | c/2B/2A/2B/2c/2d/2 | e2 e | \
P:Devx simples
e/2d/2c/2d/2e/2f/2 | g/2f/2g/2a/2g/2e/2 | f/2e/2d/2c/2d/2B/2 | c2 c |
P:Dovble
ede | A2 A | B/2c/2d/2c/2B/2A/2 | G2 G | \
P:Reprise
g/2f/2e/2d/2c/2B/2 | c f/2e/2d/2c/2 | B/2A/2G/2A/2A/2G/2 | HA4 ||
<end>
<start>
